; generated by Slic3r 1.2.9 on 2016-12-06 at 12:02:39

; external perimeters extrusion width = 0.40mm
; perimeters extrusion width = 0.68mm
; infill extrusion width = 1.28mm
; solid infill extrusion width = 0.68mm
; top infill extrusion width = 0.68mm

M127
M104 S230 T0 ; set temperature
(**** Start.gcode for Replicator 2 ****)
M103 ;disable RPM
M73 P0 ;enable build progress
G21 ;set units to mm
G90 ;set positioning to absolute
(**** begin homing ****)
G162 X Y F2500 ;home XY axes maximum
G161 Z F1100 ;home Z axis minimum
G92 Z-5 ;set Z to -5
G1 Z0.0 ;move Z to "0"
G161 Z F100 ;home Z axis minimum
M132 X Y Z A B ;Recall stored home offsets for XYZAB axis
(**** end homing ****)
G1 X-141 Y-74 Z75 F3300.0 ;move to waiting position
G130 X20 Y20 Z20 A20 B20 ;Lower stepper Vrefs while heating
M6 T0 ;wait for toolhead, and HBP to reach temperature
M70 P5 (We Be Making Things!)
G130 X127 Y127 Z40 A127 B127 ;Set Stepper motor Vref to defaults
M108 R3.0 T0
G0 X-141 Y-74 ;Position Nozzle
G0 Z1 ;Move above plate
G1 Z0.3 ;Position Height
M108 R5.0 ;Set Extruder Speed
M101 ;Start Extruder
G4 P3000 ;Create Anchor
G1 X-137 Y-70 Z0.1 F1000.0 ;Slow wipe
G0 Z0.3 ;and lift
(**** end of Start.gcode ****)
M73 P0
G1 Z0.400 F9000.000
G1 E-2.00000 F2400.00000
M103 ; extruder off
G1 X93.998 Y93.998 F9000.000
M101 ; extruder on
G1 E0.00000 F2400.00000
G1 X94.644 Y93.352 E0.10848 F650.279
G1 X96.533 Y92.024 E0.38271
G1 X98.368 Y91.464 E0.61058
G1 X98.977 Y91.370 E0.68382
G1 X101.024 Y91.370 E0.92693
G1 X101.634 Y91.464 E1.00017
M101 ; extruder on
G1 X103.821 Y92.203 E1.27440 F650.279
G1 X105.363 Y93.357 E1.50314
G1 X106.655 Y94.652 E1.72038
G1 X107.980 Y96.542 E1.99460
G1 X108.529 Y98.316 E2.21513
G1 X108.628 Y98.923 E2.28810
G1 X108.628 Y101.079 E2.54415
G1 X108.529 Y101.685 E2.61713
G1 X107.772 Y103.866 E2.89135
G1 X106.650 Y105.355 E3.11275
G1 X105.355 Y106.650 E3.33024
G1 X103.466 Y107.977 E3.60447
G1 X101.685 Y108.529 E3.82586
G1 X101.079 Y108.628 E3.89884
G1 X98.923 Y108.628 E4.15488
G1 X98.316 Y108.529 E4.22786
G1 X96.135 Y107.772 E4.50209
G1 X94.652 Y106.655 E4.72261
G1 X93.357 Y105.363 E4.93985
G1 X92.027 Y103.475 E5.21407
G1 X91.464 Y101.634 E5.44281
G1 X91.370 Y101.024 E5.51605
G1 X91.370 Y98.977 E5.75916
G1 X91.464 Y98.368 E5.83240
G1 X92.203 Y96.180 E6.10663
G1 X93.352 Y94.644 E6.33451
G1 X93.955 Y94.040 E6.43587
M104 S225 T0 ; set temperature
M73 P0
G1 Z0.500 F9000.000
M73 P1
G1 Z0.600 F9000.000
M126
M73 P1
G1 Z0.700 F9000.000
M73 P2
G1 Z0.800 F9000.000
M73 P2
G1 Z0.900 F9000.000
M73 P3
G1 Z1.000 F9000.000
M73 P3
G1 Z1.100 F9000.000
M73 P4
G1 Z1.200 F9000.000
M73 P4
G1 Z1.300 F9000.000
M73 P5
G1 Z1.400 F9000.000
M73 P5
G1 Z1.500 F9000.000
M73 P6
G1 Z1.600 F9000.000
M73 P6
G1 Z1.700 F9000.000
M73 P7
G1 Z1.800 F9000.000
M73 P7
G1 Z1.900 F9000.000
M73 P8
G1 Z2.000 F9000.000
M73 P8
G1 Z2.100 F9000.000
M73 P9
G1 Z2.200 F9000.000
M73 P9
G1 Z2.300 F9000.000
M73 P10
G1 Z2.400 F9000.000
M73 P10
G1 Z2.500 F9000.000
M73 P11
G1 Z2.600 F9000.000
M73 P11
G1 Z2.700 F9000.000
M73 P12
G1 Z2.800 F9000.000
M73 P12
G1 Z2.900 F9000.000
M73 P13
G1 Z3.000 F9000.000
M73 P13
G1 Z3.100 F9000.000
M73 P14
G1 Z3.200 F9000.000
M73 P14
G1 Z3.300 F9000.000
M73 P15
G1 Z3.400 F9000.000
M73 P15
G1 Z3.500 F9000.000
M73 P16
G1 Z3.600 F9000.000
M73 P16
G1 Z3.700 F9000.000
M73 P17
G1 Z3.800 F9000.000
M73 P17
G1 Z3.900 F9000.000
M73 P18
G1 Z4.000 F9000.000
M73 P18
G1 Z4.100 F9000.000
M73 P19
G1 Z4.200 F9000.000
M73 P19
G1 Z4.300 F9000.000
M73 P20
G1 Z4.400 F9000.000
M73 P20
G1 Z4.500 F9000.000
M73 P21
G1 Z4.600 F9000.000
M73 P21
G1 Z4.700 F9000.000
M73 P22
G1 Z4.800 F9000.000
M73 P22
G1 Z4.900 F9000.000
M73 P23
G1 Z5.000 F9000.000
M73 P23
G1 Z5.100 F9000.000
M73 P24
G1 Z5.200 F9000.000
M73 P24
G1 Z5.300 F9000.000
M73 P25
G1 Z5.400 F9000.000
M73 P25
G1 Z5.500 F9000.000
M73 P26
G1 Z5.600 F9000.000
M73 P26
G1 Z5.700 F9000.000
M73 P27
G1 Z5.800 F9000.000
M73 P27
G1 Z5.900 F9000.000
M73 P28
G1 Z6.000 F9000.000
M73 P28
G1 Z6.100 F9000.000
M73 P29
G1 Z6.200 F9000.000
M73 P29
G1 Z6.300 F9000.000
M73 P30
G1 Z6.400 F9000.000
M73 P30
G1 Z6.500 F9000.000
M73 P31
G1 Z6.600 F9000.000
M73 P31
G1 Z6.700 F9000.000
M73 P32
G1 Z6.800 F9000.000
M73 P32
G1 Z6.900 F9000.000
M73 P33
G1 Z7.000 F9000.000
M73 P33
G1 Z7.100 F9000.000
M73 P34
G1 Z7.200 F9000.000
M73 P34
G1 Z7.300 F9000.000
M73 P35
G1 Z7.400 F9000.000
M73 P35
G1 Z7.500 F9000.000
M73 P36
G1 Z7.600 F9000.000
M73 P36
G1 Z7.700 F9000.000
M73 P37
G1 Z7.800 F9000.000
M73 P37
G1 Z7.900 F9000.000
M73 P38
G1 Z8.000 F9000.000
M73 P38
G1 Z8.100 F9000.000
M73 P39
G1 Z8.200 F9000.000
M73 P39
G1 Z8.300 F9000.000
M73 P40
G1 Z8.400 F9000.000
M73 P40
G1 Z8.500 F9000.000
M73 P41
G1 Z8.600 F9000.000
M73 P41
G1 Z8.700 F9000.000
M73 P42
G1 Z8.800 F9000.000
M73 P42
G1 Z8.900 F9000.000
M73 P43
G1 Z9.000 F9000.000
M73 P43
G1 Z9.100 F9000.000
M73 P44
G1 Z9.200 F9000.000
M73 P44
G1 Z9.300 F9000.000
M73 P45
G1 Z9.400 F9000.000
M73 P45
G1 Z9.500 F9000.000
M73 P46
G1 Z9.600 F9000.000
M73 P46
G1 Z9.700 F9000.000
M73 P47
G1 Z9.800 F9000.000
M73 P47
G1 Z9.900 F9000.000
M73 P48
G1 Z10.000 F9000.000
M73 P48
G1 Z10.100 F9000.000
M73 P49
G1 Z10.200 F9000.000
M73 P49
G1 Z10.300 F9000.000
M73 P50
G1 Z10.400 F9000.000
M73 P50
G1 Z10.500 F9000.000
M73 P51
G1 Z10.600 F9000.000
M73 P51
G1 Z10.700 F9000.000
M73 P52
G1 Z10.800 F9000.000
M73 P52
G1 Z10.900 F9000.000
M73 P53
G1 Z11.000 F9000.000
M73 P53
G1 Z11.100 F9000.000
M73 P54
G1 Z11.200 F9000.000
M73 P54
G1 Z11.300 F9000.000
M73 P55
G1 Z11.400 F9000.000
M73 P55
G1 Z11.500 F9000.000
M73 P56
G1 Z11.600 F9000.000
M73 P56
G1 Z11.700 F9000.000
M73 P57
G1 Z11.800 F9000.000
M73 P57
G1 Z11.900 F9000.000
M73 P58
G1 Z12.000 F9000.000
M73 P58
G1 Z12.100 F9000.000
M73 P59
G1 Z12.200 F9000.000
M73 P59
G1 Z12.300 F9000.000
M73 P60
G1 Z12.400 F9000.000
M73 P60
G1 Z12.500 F9000.000
M73 P61
G1 Z12.600 F9000.000
M73 P61
G1 Z12.700 F9000.000
M73 P62
G1 Z12.800 F9000.000
M73 P62
G1 Z12.900 F9000.000
M73 P63
G1 Z13.000 F9000.000
M73 P63
G1 Z13.100 F9000.000
M73 P64
G1 Z13.200 F9000.000
M73 P64
G1 Z13.300 F9000.000
M73 P65
G1 Z13.400 F9000.000
M73 P65
G1 Z13.500 F9000.000
M73 P66
G1 Z13.600 F9000.000
M73 P66
G1 Z13.700 F9000.000
M73 P67
G1 Z13.800 F9000.000
M73 P67
G1 Z13.900 F9000.000
M73 P68
G1 Z14.000 F9000.000
M73 P68
G1 Z14.100 F9000.000
M73 P69
G1 Z14.200 F9000.000
M73 P69
G1 Z14.300 F9000.000
M73 P70
G1 Z14.400 F9000.000
M73 P70
G1 Z14.500 F9000.000
M73 P71
G1 Z14.600 F9000.000
M73 P71
G1 Z14.700 F9000.000
M73 P72
G1 Z14.800 F9000.000
M73 P72
G1 Z14.900 F9000.000
M73 P73
G1 Z15.000 F9000.000
M73 P73
G1 Z15.100 F9000.000
M73 P74
G1 Z15.200 F9000.000
M73 P74
G1 Z15.300 F9000.000
M73 P75
G1 Z15.400 F9000.000
M73 P75
G1 Z15.500 F9000.000
M73 P76
G1 Z15.600 F9000.000
M73 P76
G1 Z15.700 F9000.000
M73 P77
G1 Z15.800 F9000.000
M73 P77
G1 Z15.900 F9000.000
M73 P78
G1 Z16.000 F9000.000
M73 P78
G1 Z16.100 F9000.000
M73 P79
G1 Z16.200 F9000.000
M73 P79
G1 Z16.300 F9000.000
M73 P80
G1 Z16.400 F9000.000
M73 P80
G1 Z16.500 F9000.000
M73 P81
G1 Z16.600 F9000.000
M73 P81
G1 Z16.700 F9000.000
M73 P82
G1 Z16.800 F9000.000
M73 P82
G1 Z16.900 F9000.000
M73 P83
G1 Z17.000 F9000.000
M73 P83
G1 Z17.100 F9000.000
M73 P84
G1 Z17.200 F9000.000
M73 P84
G1 Z17.300 F9000.000
M73 P85
G1 Z17.400 F9000.000
M73 P85
G1 Z17.500 F9000.000
M73 P86
G1 Z17.600 F9000.000
M73 P86
G1 Z17.700 F9000.000
M73 P87
G1 Z17.800 F9000.000
M73 P87
G1 Z17.900 F9000.000
M73 P88
G1 Z18.000 F9000.000
M73 P88
G1 Z18.100 F9000.000
M73 P89
G1 Z18.200 F9000.000
M73 P89
G1 Z18.300 F9000.000
M73 P90
G1 Z18.400 F9000.000
M73 P90
G1 Z18.500 F9000.000
M73 P91
G1 Z18.600 F9000.000
M73 P91
G1 Z18.700 F9000.000
M73 P92
G1 Z18.800 F9000.000
M73 P92
G1 Z18.900 F9000.000
M73 P93
G1 Z19.000 F9000.000
M73 P93
G1 Z19.100 F9000.000
M73 P94
G1 Z19.200 F9000.000
M73 P94
G1 Z19.300 F9000.000
M73 P95
G1 Z19.400 F9000.000
M73 P95
G1 Z19.500 F9000.000
M73 P96
G1 Z19.600 F9000.000
M73 P96
G1 Z19.700 F9000.000
M73 P97
G1 Z19.800 F9000.000
M73 P97
G1 Z19.900 F9000.000
M73 P98
G1 Z20.000 F9000.000
M73 P98
G1 Z20.100 F9000.000
M73 P99
G1 Z20.200 F9000.000
G1 E4.43587 F2400.00000
M103 ; extruder off
M127
(**** End.gcode ****)
M103 ;Turn extruder off
M104 S0 ;Zero temperature
M73 P100 ;End  build progress
G0 Z155 ;Send Z axis to bottom of machine
M18 ;Disable stepper
M104 S0 T0 ;Cool down the Right Extruder
G162 X Y F2500 ;Home XY endstops
M18 ;Disable stepper motors
M70 P5 ( We Be Making Things!)
M72 P1 ;Play Ta-Da song
(**** end of End.gcode ****)
M73 P100
; filament used = 6.4mm (0.0cm3)

; avoid_crossing_perimeters = 1
; bed_shape = 0x0,280x0,280x150,0x150
; bed_temperature = 0
; before_layer_gcode = 
; bridge_acceleration = 0
; bridge_fan_speed = 100
; brim_width = 0
; complete_objects = 0
; cooling = 1
; default_acceleration = 0
; disable_fan_first_layers = 3
; duplicate_distance = 6
; end_gcode = (**** End.gcode ****)\nM103 ;Turn extruder off\nM104 S0 ;Zero temperature\nM73 P100 ;End  build progress\nG0 Z155 ;Send Z axis to bottom of machine\nM18 ;Disable stepper\nM104 S0 T0 ;Cool down the Right Extruder\nG162 X Y F2500 ;Home XY endstops\nM18 ;Disable stepper motors\nM70 P5 ( We Be Making Things!)\nM72 P1 ;Play Ta-Da song\n(**** end of End.gcode ****)
; extruder_clearance_height = 20
; extruder_clearance_radius = 20
; extruder_offset = 0x0
; extrusion_axis = E
; extrusion_multiplier = 1
; fan_always_on = 0
; fan_below_layer_time = 60
; filament_colour = #FFFFFF
; filament_diameter = 1.75
; first_layer_acceleration = 0
; first_layer_bed_temperature = 0
; first_layer_extrusion_width = 200%
; first_layer_speed = 30
; first_layer_temperature = 230
; gcode_arcs = 0
; gcode_comments = 0
; gcode_flavor = makerware
; infill_acceleration = 0
; infill_first = 0
; layer_gcode = 
; max_fan_speed = 100
; max_print_speed = 80
; max_volumetric_speed = 0
; min_fan_speed = 35
; min_print_speed = 10
; min_skirt_length = 0
; notes = 
; nozzle_diameter = 0.4
; only_retract_when_crossing_perimeters = 1
; ooze_prevention = 0
; output_filename_format = [input_filename_base].gcode
; perimeter_acceleration = 0
; post_process = 
; pressure_advance = 0
; resolution = 0
; retract_before_travel = 2
; retract_layer_change = 0
; retract_length = 2
; retract_length_toolchange = 10
; retract_lift = 0
; retract_restart_extra = 0
; retract_restart_extra_toolchange = 0
; retract_speed = 40
; skirt_distance = 6
; skirt_height = 1
; skirts = 1
; slowdown_below_layer_time = 5
; spiral_vase = 0
; standby_temperature_delta = -5
; start_gcode = (**** Start.gcode for Replicator 2 ****)\nM103 ;disable RPM\nM73 P0 ;enable build progress\nG21 ;set units to mm\nG90 ;set positioning to absolute\n(**** begin homing ****)\nG162 X Y F2500 ;home XY axes maximum\nG161 Z F1100 ;home Z axis minimum\nG92 Z-5 ;set Z to -5\nG1 Z0.0 ;move Z to "0"\nG161 Z F100 ;home Z axis minimum\nM132 X Y Z A B ;Recall stored home offsets for XYZAB axis\n(**** end homing ****)\nG1 X-141 Y-74 Z75 F3300.0 ;move to waiting position\nG130 X20 Y20 Z20 A20 B20 ;Lower stepper Vrefs while heating\nM6 T0 ;wait for toolhead, and HBP to reach temperature\nM70 P5 (We Be Making Things!)\nG130 X127 Y127 Z40 A127 B127 ;Set Stepper motor Vref to defaults\nM108 R3.0 T0\nG0 X-141 Y-74 ;Position Nozzle\nG0 Z1 ;Move above plate\nG1 Z0.3 ;Position Height\nM108 R5.0 ;Set Extruder Speed\nM101 ;Start Extruder\nG4 P3000 ;Create Anchor\nG1 X-137 Y-70 Z0.1 F1000.0 ;Slow wipe\nG0 Z0.3 ;and lift\n(**** end of Start.gcode ****)
; temperature = 225
; threads = 2
; toolchange_gcode = 
; travel_speed = 150
; use_firmware_retraction = 0
; use_relative_e_distances = 0
; use_volumetric_e = 0
; vibration_limit = 0
; wipe = 0
; z_offset = 0
; dont_support_bridges = 1
; extrusion_width = 0
; first_layer_height = 0.4
; infill_only_where_needed = 0
; interface_shells = 0
; layer_height = 0.1
; raft_layers = 0
; seam_position = aligned
; support_material = 0
; support_material_angle = 0
; support_material_contact_distance = 0.2
; support_material_enforce_layers = 0
; support_material_extruder = 1
; support_material_extrusion_width = 0
; support_material_interface_extruder = 1
; support_material_interface_layers = 3
; support_material_interface_spacing = 0
; support_material_interface_speed = 100%
; support_material_pattern = pillars
; support_material_spacing = 2.5
; support_material_speed = 60
; support_material_threshold = 0
; xy_size_compensation = 0
; bottom_solid_layers = 6
; bridge_flow_ratio = 1
; bridge_speed = 60
; external_fill_pattern = rectilinear
; external_perimeter_extrusion_width = 0
; external_perimeter_speed = 50%
; external_perimeters_first = 0
; extra_perimeters = 1
; fill_angle = 45
; fill_density = 20%
; fill_pattern = rectilinear
; gap_fill_speed = 20
; infill_every_layers = 10
; infill_extruder = 1
; infill_extrusion_width = 0
; infill_overlap = 15%
; infill_speed = 80
; overhangs = 1
; perimeter_extruder = 1
; perimeter_extrusion_width = 0
; perimeter_speed = 40
; perimeters = 3
; small_perimeter_speed = 15
; solid_infill_below_area = 70
; solid_infill_every_layers = 0
; solid_infill_extruder = 1
; solid_infill_extrusion_width = 0
; solid_infill_speed = 20
; thin_walls = 1
; top_infill_extrusion_width = 0
; top_solid_infill_speed = 15
; top_solid_layers = 6
